X: 10
T: Mountain Dance    [Am]
O: Moldavia, Mames Babegenush CD
D: Mames Babegenush With Strings
S: transcription by Steve Rauch 2019-5-12
Z: 2019 John Chambers <jc:trillian.mit.edu>
M: 2/4
L: 1/16
K: Am
"=A"|:\
"Am"EABc- c2BA | Bccc- cfed |\
"Dm"^cddd- d=cBA | "Am"Bce2 "E"^dcBA |\
"Am"EABc- c2BA | Bccc- cBcd |
"B7"_ecdB "D7"cAB^G | "Am"AEF^G A4 :|\
"^B"|:\
"Am"AEAB c^de^f | gaaa- a^fga |\
"B7"_bga^f gef^d | "E"e4 ^dcBA |
"Am"AEAB c^de^f | gaaa- a^fga |\
"B7"_bga^f gef^d | "E"e6 "(A7)"z2 :|\
"^C"|:\
"Dm"effe edaf | ^cddd- dfed |
"G"effe edef | "C"fgg2 gfed |\
"Dm"effe edaf | ^cddd- dB=cd |\
"B7"_ecdB "E7"cAB^G | "Am"AEF^G A4 :|

%%sep 1 1 500

